X:65
T:Belle Chasse. THO5.065, La
M:6/8
L:1/8
B:Thompson's Complete Collection of 200 Favourite Dances Vol.5
F:https://www.libraryofdance.org/manuals/1780c-Thompson-Compleat-5.pdf
Z:vmp. Peter Dunk 2024
Q:3/8=100
K:A
e/d/|c2c cdc|e2d d2c|B2B BcB|d2c c2B|
c2c cdc|e2d d2c|B2B BcB|A3-A2:|
|:(e/d/)|cde cde|f2e d2c|Bcd Bcd|e2d c2B|
c2c cdc|f2d dcB|cec dBG|A3-A2:|
W:
W:The 1st and 2nd Couples change sides and back again ./.
W:Lead down two Couples, up again and cast off ./:
W:Allemand :/.
W:Hands six quite round :/:

